X:1
T:Elle disoit, faictes tout
T:Nicolas Pagnier
T:Source : Livre III de 22 chansons nouvelles à 4 parties---Paris---N.du Chemin---1549. Editor : André Vierendeels (17/02/18) Notes : Original clefs : C1, C3, C4, F4 Original note values have been halved Editorial accidentals above the stave 
T:Elle disoit, faictes tout
T:©
T:©
T:©
C:Nicolas Pagnier
Z:©
%%score [ 1 [ 2 3 ] 4 ]
L:1/8
Q:1/4=120
M:2/2
K:F
V:1 treble nm="Soprano" snm="S"
V:2 treble-8 nm="Tenor 1" snm="T 1"
V:3 treble-8 nm="Tenor 2" snm="T 2"
V:4 bass nm="Bass" snm="B"
V:1
 G3 F G2 A2 | BB B2 z BBB | A2 G2 F2 d2 | z ddd c2 A2 | B2 B2 c2 c2 | A2 A2 B2 A2- | AG G4 F2 | %7
w: El- le di- soit|faic- tes tout, faic- tes tout|bel- le- ment, hay|hay mon a- my hay|mon a- my i'ay|la cuis- s'es- cor-|* * ché- *|
 G2 G2 GFED | E2 E2 D2 D2 | B6 A2 | G2 G2 F4 | F2 B2 z ABB | G2 z2 G2 GG | F2 F2 F2 E2- | %14
w: e, mais puis _ _ _|_ a- pres se|sen- tant|es- chauf- fé-|e, dict tost tost tost|tost tost tost tost|tost las fra- pez|
 E2 D4 C2 | D2 B2 A2 G2 | F4 z D G2- | G2 F2 G2 A2 | G3 F E4 | D4 z2 D2 | E2 E2 D4- | D4 z2 A2 |: %22
w: _ har- di-|ment, ne crai- gnez|point que de-|* meu- re'af- fol-|lé- * *|e, pour|en- du- rer,|_ pour|
 B2 B2 G4 | z2 A2 B2 B2 | A2 A2 G2 G2- | G2 c3 BAG | FE D2 d3 c | BAGF ED G2- |"^#" G2 F2 G4 |1 %29
w: en- du- rer,|pour en- du-|rer un mal si|_ doul- * * *|||* ce- ment,|
[M:2/4] z2 A2 :|2[M:2/2]"^#" G2 F2 G4- || G8 |] %32
w: pour|(doul) ce- ment.|_|
V:2
 d3 d d2 f2 | ff f2 z fff | e2 e2 d2 f2 | z fff a2 a2 | g4 g4 | f6 f2 | d2 c2 d4 |"^#" d2 d2 c4 | %8
w: El- le di- soit|faic- tes tout, faic- tes tout|bel- le- ment, hay|hay mon a- my hay|i'ay la|cuis- s'es-|cor- * ché-|e, mais puis|
 c4 A4 | z2 d2 d2 f2 |"^b" d2 e2 c4 | d2 f2 z f z d | e2 f2 dd e2 | c2 d2 dA z c | cBAG A4 | %15
w: a- pres|se sen- tant|es- chauf- fé-|e, dict tost tost|tost tost tost tost tott|tost las fra- pez, las|fra- pez har- di- ment,|
"^#""^-natural" z2 d2 c2 c2 | d8 | z Adc d2 f2 | ed d4 c2 | d2 d2 e2 d2 | c3 B A2 A2 | B2 B2 A4 |: %22
w: ne crai- gnez|point|point que de- meu- re'af-|fol- * lé- *|e, pour en- du-|rer, _ _ pour|en- du- rer|
 z2 d2 e3 d | c2 c2 BABc | d4 z2 d2 | e2 e2 c4 | z2 d2 dcBA | G2 G2 c2 c2 | d2 A2 B2 B2 |1 %29
w: un mal si|doul- ce- * * * *|ment, si|doul- ce- ment,|si doul- * * *|* * * ce-|* * ment, un|
[M:2/4] A4 :|2[M:2/2] d8- || d8 |] %32
w: mal|ment.|_|
V:3
 B3 A B2 c2 | dd d2 z ddd | c3 B A2 z2 | B2 z B A2 A2 | d2 d2 e4 | d6 c2 | B2 AG A4 | G4 z2 G2 | %8
w: El- le di- soit|faic- tes tout, fai- ctes tout|bel- le- ment|hay hay mon a-|my i'ay la|cuis- s'es-|cor- * * ché-|e, mais|
 G2 G2 F2 d2 | d2 d2 B2 c2- | cB B4 A2 | B2 d2 cc B2 | z G A2 B2 c2 | AA A2 z AAA | GFED E2 E2 | %15
w: puis a- pres se|sen- tant es- chauf-|* * fé- *|e, dict tost tost tost|tost tost tost tost|las fra- pez, las fra- pez|har- * * * * di-|
 D4 z4 | z2 F2 G2 B2 | A2 D2 G2 F2 | G2 G2 A4 | B3 A GF B2 | A2 G4 F2 | G4 D4 |: z4 z2 G2 | %23
w: ment,|ne crain- gnez|point que de- meu-|re'af- fol- lé-|||* e,|pour|
 G2 F2 G2 G2 | D2 A2 B2 B2 | c2 c2 A2 A2 | d3 c BA G2 | B2 c3 BAG | A4 G4 |1[M:2/4] D4 :|2 %30
w: en- du- rer un|mal, pour en- du-|rer un mal si|doul- * * * *||ce- *|ment,|
[M:2/2] A4 G4- || G8 |] %32
w: ce- ment.|_|
V:4
 G,3 D, G,2 F,2 | B,,B,, B,,2 z B,,B,,B,, | C,2 C,2 D,2 B,,2 | z2 B,,2 F,2 F,2 | G,4 C,4 | %5
w: El- le di- soit|faic- tes tout, faic- tes tout|bel- le- ment hay|hay mon a-|my i'ay|
 D,6 F,2 | G,2 E,2 D,4 | G,,2 G,,2 C,4 | C,4 D,2 D,2 | G,6 F,2 |"^b" G,2 E,2 F,4 | %11
w: la cuis-|s'es- cor- ché-|e, mais puis|a- pres se|sen- tant|es- chauf- fé-|
 B,,2 B,,2 F,F,G,G, | C,2 F,2 G,2 C,2 | z2 D,2 D,2 A,,A,, | C,2 D,2 A,,2 A,,2 | D,2 z B,, C,2 E,2 | %16
w: e, dict tost tost tost tost|tost tost tost tost|las fra- pez, las|fra- pez har- di-|ment, ne crai- gnez|
 D,3 C, B,,2 A,,G,, | D,4 z4 | z8 | G,,4 C,2 B,,2 | C,2 C,2 D,4 | G,,2 G,2 G,2 F,2 |: %22
w: point, _ _ _ _|_||que de- meu-|re'af- fol- lé-|e, pour en- du-|
 G,2 G,2 C,3 B,, | A,,2 A,,2 G,,2 G,2 | G,2 F,2 G,2 G,2 | C,2 C,2 F,3 E, | D,C,B,,A,, G,,2 G,2- | %27
w: rer un mal si|doul- ce- ment, un|mal si doul- ce-|ment, un mal si|doul- * * * * *|
 G,F,E,D, C,2 E,2 | D,4 G,,2 G,2 |1[M:2/4] G,2 F,2 :|2[M:2/2] D,4 G,,4- || G,,8 |] %32
w: |ce ment, pour|en- du-|ce- ment.|_|

